packages/radix-icons/outline/15/backpack.svg

<svg width="15" height="15" fill="none" xmlns="http://www.w3.org/2000/svg">
  <path
    fill-rule="evenodd"
    clip-rule="evenodd"
    d="M5 3C5 2.44772 5.44772 2 6 2H9C9.55228 2 10 2.44772 10 3V4H12C12.5523 4 13 4.44772 13 5V7C13 7.8888 12.6131 8.68734 12 9.23608V11.5C12 12.3284 11.3284 13 10.5 13H4.5C3.67157 13 3 12.3284 3 11.5V9.2359C2.38697 8.68721 2 7.88883 2 7V5C2 4.44772 2.44772 4 3 4H5V3ZM9 3V4H6V3H9ZM3 5H5H5.5H9.5H10H12V7C12 7.654 11.6866 8.23467 11.1997 8.6004C10.8655 8.85144 10.4508 9 10 9H8V8.5C8 8.22386 7.77614 8 7.5 8C7.22386 8 7 8.22386 7 8.5V9H5C4.5493 9 4.1346 8.85133 3.80029 8.60022C3.31335 8.23446 3 7.65396 3 7V5ZM7 10H5C4.64961 10 4.31292 9.93972 4 9.82905V11.5C4 11.7761 4.22386 12 4.5 12H10.5C10.7761 12 11 11.7761 11 11.5V9.82915C10.6871 9.93978 10.3504 10 10 10H8V10.5C8 10.7761 7.77614 11 7.5 11C7.22386 11 7 10.7761 7 10.5V10Z"
    fill="currentColor"
  />
</svg>

<svg width="15" height="15" fill="none" xmlns="http://www.w3.org/2000/svg">
  <path
    fill-rule="evenodd"
    clip-rule="evenodd"
    d="M5 3a1 1 0 011-1h3a1 1 0 011 1v1h2a1 1 0 011 1v2c0 .889-.387 1.687-1 2.236V11.5a1.5 1.5 0 01-1.5 1.5h-6A1.5 1.5 0 013 11.5V9.236A2.993 2.993 0 012 7V5a1 1 0 011-1h2V3zm4 0v1H6V3h3zM3 5h9v2a1.996 1.996 0 01-2 2H8v-.5a.5.5 0 00-1 0V9H5a1.996 1.996 0 01-2-2V5zm4 5H5c-.35 0-.687-.06-1-.17v1.67a.5.5 0 00.5.5h6a.5.5 0 00.5-.5V9.83c-.313.11-.65.17-1 .17H8v.5a.5.5 0 01-1 0V10z"
    fill="currentColor"
  />
</svg>
